src/assets/svg/training.svg

<svg width="65" height="59" viewBox="0 0 65 59" fill="none" xmlns="http://www.w3.org/2000/svg">
<path d="M64.0479 3.7209V46.3175C64.0479 47.7013 62.9256 48.8223 61.5431 48.8223H3.45693C2.07441 48.8223 0.952148 47.7013 0.952148 46.3175V3.7209C0.952148 2.33711 2.07441 1.21484 3.45693 1.21484H61.5431C62.9256 1.21484 64.0479 2.33711 64.0479 3.7209Z" fill="white"/>
<path d="M47.7344 43.7402V51.1645L32.5 57.3737L17.2656 51.1645V47.5044L32.5 53.5651L43.3723 49.1535C44.0083 48.8958 44.4234 48.2788 44.4234 47.5945V45.0897L47.7344 43.7402Z" fill="white"/>
<path d="M61.5427 0.262695H3.45731C1.55099 0.262695 0 1.81381 0 3.72014V46.3171C0 48.2236 1.55099 49.7744 3.45731 49.7744H13.5474C14.0733 49.7744 14.4996 49.3481 14.4996 48.8223C14.4996 48.2964 14.0733 47.8701 13.5474 47.8701H3.45731C2.60089 47.8701 1.9043 47.1734 1.9043 46.3171V11.0199H51.6699C52.1958 11.0199 52.6221 10.5936 52.6221 10.0678C52.6221 9.54195 52.1958 9.11564 51.6699 9.11564H1.9043V3.72014C1.9043 2.86371 2.60102 2.16699 3.45731 2.16699H61.5426C62.399 2.16699 63.0956 2.86371 63.0956 3.72014V9.11564H56.155C55.6292 9.11564 55.2029 9.54195 55.2029 10.0678C55.2029 10.5936 55.6292 11.0199 56.155 11.0199H63.0957V46.3171C63.0957 47.1735 62.399 47.8701 61.5427 47.8701H51.5392C51.0133 47.8701 50.587 48.2964 50.587 48.8223C50.587 49.3481 51.0133 49.7744 51.5392 49.7744H61.5427C63.4491 49.7744 65 48.2234 65 46.3171V3.72014C65 1.81381 63.449 0.262695 61.5427 0.262695Z" fill="#E10303"/>
<path d="M5.3164 4.69043C4.79056 4.69043 4.36425 5.11674 4.36425 5.64258C4.36425 6.16842 4.79056 6.59473 5.3164 6.59473H9.22566C9.7515 6.59473 10.1778 6.16842 10.1778 5.64258C10.1778 5.11674 9.7515 4.69043 9.22566 4.69043H5.3164Z" fill="#E10303"/>
<path d="M54.9744 28.5264C55.3329 28.3804 55.5673 28.0318 55.5673 27.6447C55.5673 27.2577 55.3329 26.909 54.9744 26.763L32.8593 17.751C32.629 17.6572 32.371 17.6572 32.1407 17.751L10.0256 26.7629C9.66711 26.9089 9.43275 27.2575 9.43275 27.6446C9.43275 28.0317 9.66711 28.3803 10.0256 28.5263L16.3135 31.0886V51.165C16.3135 51.552 16.5478 51.9007 16.9064 52.0467L21.0996 53.7554V57.7845C21.0996 58.3104 21.5259 58.7367 22.0518 58.7367C22.5776 58.7367 23.0039 58.3104 23.0039 57.7845V54.5314L32.1407 58.2547C32.2559 58.3016 32.378 58.3251 32.5 58.3251C32.622 58.3251 32.7441 58.3016 32.8593 58.2547L48.0937 52.0467C48.4522 51.9007 48.6865 51.552 48.6865 51.165V31.0886L54.9744 28.5264ZM21.0996 33.0391V44.2748L18.2178 43.1005V31.8648L21.0996 33.0391ZM18.2178 50.525V45.1568L21.0996 46.3311V51.6993L18.2178 50.525ZM32.5 56.3449L23.0039 52.4752V47.107L32.1407 50.8303C32.2559 50.8773 32.378 50.9008 32.5 50.9008C32.622 50.9008 32.7441 50.8773 32.8593 50.8303L46.7822 45.1567V50.5249L32.5 56.3449ZM46.7822 43.1004L32.5 48.9204L23.0039 45.0508V33.815L32.1407 37.5383C32.2559 37.5853 32.378 37.6088 32.5 37.6088C32.622 37.6088 32.7441 37.5853 32.8593 37.5383L38.5211 35.2312C39.0081 35.0328 39.2421 34.4772 39.0436 33.9902C38.8451 33.5032 38.2891 33.2691 37.8026 33.4678L32.5 35.6284L24.5748 32.3989L32.8593 29.0229C33.3463 28.8245 33.5803 28.2688 33.3817 27.782C33.1833 27.2949 32.6271 27.0609 32.1407 27.2596L22.0519 31.3708L12.9081 27.6447L32.5 19.6609L52.0921 27.6447L41.9316 31.7851C41.4446 31.9835 41.2106 32.5392 41.4092 33.026C41.6076 33.513 42.1634 33.747 42.6502 33.5484L46.7821 31.8647V43.1004H46.7822Z" fill="#E10303"/>
</svg>

<svg width="65" height="59" fill="none" xmlns="http://www.w3.org/2000/svg">
  <path
    d="M64.048 3.72v42.598a2.505 2.505 0 01-2.505 2.504H3.457a2.505 2.505 0 01-2.505-2.505V3.722a2.506 2.506 0 012.505-2.506h58.086a2.506 2.506 0 012.505 2.506z"
    fill="#fff" />
  <path
    d="M47.734 43.74v7.424L32.5 57.374l-15.234-6.21v-3.66L32.5 53.565l10.872-4.411a1.682 1.682 0 001.051-1.56V45.09l3.311-1.35z"
    fill="#fff" />
  <path
    d="M61.543.263H3.457A3.461 3.461 0 000 3.72v42.597a3.461 3.461 0 003.457 3.457h10.09a.952.952 0 100-1.904H3.457a1.555 1.555 0 01-1.553-1.553V11.02H51.67a.952.952 0 100-1.904H1.904V3.72c0-.856.697-1.553 1.553-1.553h58.086c.856 0 1.553.697 1.553 1.553v5.396h-6.941a.952.952 0 000 1.904h6.94v35.297c0 .856-.696 1.553-1.552 1.553H51.539a.952.952 0 100 1.904h10.004A3.461 3.461 0 0065 46.317V3.72A3.461 3.461 0 0061.543.263z"
    fill="#E10303" />
  <path
    d="M5.316 4.69a.952.952 0 000 1.905h3.91a.952.952 0 000-1.905h-3.91zM54.974 28.526a.952.952 0 000-1.763L32.86 17.751a.953.953 0 00-.718 0l-22.115 9.012a.952.952 0 000 1.763l6.288 2.563v20.076c0 .387.234.736.592.882l4.194 1.708v4.03a.952.952 0 101.904 0V54.53l9.137 3.724a.953.953 0 00.718 0l15.235-6.208a.952.952 0 00.593-.882V31.089l6.287-2.563zM21.1 33.04v11.236L18.218 43.1V31.865l2.882 1.174zm-2.882 17.486v-5.368L21.1 46.33V51.7l-2.882-1.174zm14.282 5.82l-9.496-3.87v-5.368l9.137 3.723a.951.951 0 00.718 0l13.923-5.673v5.368L32.5 56.345zM46.782 43.1L32.5 48.92l-9.496-3.87V33.816l9.137 3.723a.951.951 0 00.718 0l5.662-2.307a.952.952 0 10-.718-1.763l-5.303 2.16-7.925-3.23 8.284-3.375a.952.952 0 10-.718-1.763l-10.09 4.11-9.143-3.725L32.5 19.66l19.592 7.984-10.16 4.14a.952.952 0 10.718 1.763l4.132-1.683V43.1z"
    fill="#E10303" /></svg>
